X: 71
T: The Mountains Of Pomeroy
B: begged borrowed and stolen
M:2/4
R: polka
Q: 1/4=100
K:Gmajor
V:1 
B2c2|: "G"d4 d2B2 | d2c2B2A2| "C"G6 A2 |E4 G2E2|"G"D4E2G2  | G4 A2B2|"Am"c6 "C"B2 | "D"A4 B2c2|
"G"d6 B2 | d2c2B2A2| "C"G6A2 | E4 G2E2|"G"D6E2 | "C"G6A2| "G"G4 G4 | G4 G2A2|
"G"B6 A2 | G4 A2B2|"C" c4 d4 | d4 g2e2|"G" d4 d2BA | G4 A2B2| "C"c4 c4 | "D"c4 B2c2|
"G"d6 B2 | d2c2B2A2| "C"G4 A4|  E4 G2E2|"G"D6E2 |"C"G6A2|"G"G4 G4 | G4 B2c2:|
% abcbook-tune_id 627e2b1f3ecf456cfd72468e


% abcbook-boost 0
% abcbook-tablature 
% abcbook-transpose 
% abcbook-lastupdated 1652725431103
% abcbook-soundfonts 
% abcbook-repeats 3


